X: 3173
T: Bedford Cross
R: slide
M: 12/8
K: Dmajor
|:A3 AGA B2 A G2 B|AGE G2 E D2 E G2 B|
ABA AGA B2 A G2 B|AGE G2 E D3 D3:|
|:d2 A A^GA B2 A =G2 B|AGE G2 E D2 E G2 B|
d3 A^GA B2 A =G2 B|AGE G2 E D3 D3:|

